X: 290
T: Miss Stanleys Rant
%R: reel, hornpipe
Z: 2014 John Chambers <jc:trillian.mit.edu>
B: Preston "Twenty four Country Dances for the Year 1796" p.125 #2
F: http://www.vwml.org/browse/browse-collections-dance-tune-books/browse-prestons1796# 2014-8-10
M: C|
L: 1/8
K: G
|:\
G>ABG EGDG | CGB,G A,A2B |\
G>ABG EGDe | d>BAc BGG2 :|
|:\
d>edg e>feg | d>edB A>BcA |\
d>edg e>feg | d>BAc BGG2 :|
% - - - - - - - - - - - - - - - - - - - - - - - - -
%%begintext align
%% 1st Lady cast of 1 Cu: her partner follow her
%% into the 2d Cu.s place .| follow back to proper
%% places :| lead down the middle up again :|.
%%               Allemande :|:
%%endtext
% - - - - - - - - - - - - - - - - - - - - - - - - -

%%sep 1 1 500
%%sep 1 1 500
